public/assets/heat1.svg

<svg width="54" height="83" viewBox="0 0 54 83" fill="none" xmlns="http://www.w3.org/2000/svg">
<path d="M53.3177 55.3778C53.3177 62.3246 50.5581 68.9869 45.6459 73.899C40.7338 78.8112 34.0715 81.5708 27.1247 81.5708C20.1778 81.5708 13.5155 78.8112 8.60339 73.899C3.69125 68.9869 0.931641 62.3246 0.931641 55.3778C0.931641 40.9116 27.1247 0.698975 27.1247 0.698975C27.1247 0.698975 53.3177 40.9116 53.3177 55.3778Z" fill="#3D4C66"/>
<path d="M7.8579 60.7416C7.65672 60.7845 7.44554 60.7402 7.27073 60.6186C7.09592 60.4969 6.97177 60.3078 6.92554 60.0927C6.82651 59.6159 6.75117 59.1345 6.69984 58.6505C6.68771 58.5422 6.6957 58.433 6.72337 58.3291C6.75104 58.2253 6.79784 58.1288 6.8611 58.0452C6.92436 57.9616 7.00284 57.8925 7.09205 57.8419C7.18127 57.7913 7.27948 57.7602 7.38107 57.7502C7.48266 57.7403 7.58565 57.7518 7.68415 57.7841C7.78266 57.8164 7.87474 57.8689 7.95516 57.9384C8.03557 58.008 8.10274 58.0934 8.15283 58.1897C8.20291 58.2859 8.23494 58.3912 8.24707 58.4996C8.29103 58.9239 8.35608 59.346 8.44193 59.7642C8.46519 59.8709 8.46854 59.9809 8.45176 60.0879C8.43498 60.1948 8.39842 60.2966 8.34416 60.3874C8.28991 60.4782 8.21902 60.5562 8.13558 60.617C8.05214 60.6778 7.95778 60.7201 7.8579 60.7416Z" fill="white"/>
<path d="M15.3398 73.1972C15.2196 73.2233 15.0952 73.2217 14.9757 73.1927C14.8563 73.1636 14.745 73.1078 14.6502 73.0295C11.744 70.6412 9.47366 67.5705 8.0416 64.0914C7.99744 63.9917 7.9737 63.8841 7.97179 63.775C7.96988 63.666 7.98983 63.5577 8.03047 63.4565C8.07111 63.3553 8.13161 63.2632 8.2084 63.1858C8.28519 63.1084 8.37671 63.0472 8.47755 63.0058C8.57839 62.9643 8.68652 62.9436 8.79553 62.9447C8.90454 62.9457 9.01224 62.9687 9.11225 63.0121C9.21227 63.0555 9.30257 63.1186 9.37784 63.1975C9.4531 63.2764 9.51179 63.3696 9.55045 63.4716C10.8822 66.6997 12.9901 69.5489 15.6869 71.7661C15.8067 71.8633 15.8964 71.9924 15.9458 72.1385C15.9951 72.2846 16.002 72.4417 15.9657 72.5916C15.9293 72.7415 15.8512 72.8779 15.7404 72.9851C15.6296 73.0923 15.4907 73.1659 15.3398 73.1972Z" fill="white"/>
<g style="mix-blend-mode:soft-light" opacity="0.5">
<path d="M26.9969 0.46582C26.9969 0.46582 25.4313 2.87309 23.0708 6.70571C29.1043 16.2977 47.3419 46.2943 47.3419 58.3694C47.3425 62.4919 46.3674 66.556 44.4962 70.2293C42.6251 73.9027 39.911 77.081 36.576 79.5044C41.4704 77.5814 45.6723 74.2292 48.6344 69.8843C51.5966 65.5394 53.1818 60.4032 53.1835 55.1446C53.1899 40.6784 26.9969 0.46582 26.9969 0.46582Z" fill="#3D4C66"/>
</g>
<path d="M9.70619 22.605C9.60326 22.6054 9.50191 22.5801 9.41156 22.5315C9.2672 22.4538 9.15996 22.3228 9.11336 22.1674C9.06676 22.0119 9.08458 21.8445 9.16294 21.702C10.4657 19.3225 12.103 16.4431 13.3225 14.3013L13.9826 13.1311C14.0224 13.0609 14.0759 12.9991 14.14 12.9492C14.2041 12.8994 14.2775 12.8624 14.356 12.8405C14.4346 12.8186 14.5167 12.8122 14.5978 12.8216C14.6789 12.831 14.7573 12.856 14.8286 12.8953C14.8998 12.9345 14.9625 12.9872 15.0131 13.0504C15.0637 13.1135 15.1012 13.1859 15.1234 13.2633C15.1456 13.3407 15.1522 13.4217 15.1426 13.5016C15.1331 13.5816 15.1077 13.6588 15.0679 13.7291L14.4015 14.9004C13.1845 17.0386 11.551 19.9094 10.2519 22.284C10.1987 22.3809 10.1199 22.4619 10.0238 22.5184C9.92778 22.5749 9.81805 22.6048 9.70619 22.605Z" fill="#323C6B"/>
<path d="M15.7236 11.652C15.6224 11.652 15.5229 11.6232 15.4353 11.5684C15.3476 11.5136 15.2748 11.4348 15.2242 11.3399C15.1736 11.245 15.147 11.1374 15.147 11.0278C15.147 10.9182 15.1736 10.8106 15.2242 10.7157L15.9162 9.4398C15.9508 9.36266 15.9998 9.29409 16.06 9.23835C16.1202 9.18262 16.1904 9.14092 16.2662 9.11586C16.342 9.0908 16.4217 9.08291 16.5004 9.0927C16.5792 9.10248 16.6552 9.12973 16.7237 9.17273C16.7923 9.21573 16.8519 9.27357 16.8989 9.34263C16.9459 9.41169 16.9793 9.4905 16.9969 9.57413C17.0145 9.65776 17.016 9.74443 17.0013 9.82872C16.9866 9.913 16.956 9.99311 16.9114 10.064L16.2229 11.3399C16.1723 11.4348 16.0995 11.5136 16.0119 11.5684C15.9242 11.6232 15.8248 11.652 15.7236 11.652Z" fill="#323C6B"/>
<path d="M26.9992 82.4585C19.8411 82.4504 12.9784 79.6032 7.91684 74.5416C2.85527 69.4801 0.00810832 62.6174 0 55.4593C0 40.9205 25.2498 1.99135 26.3236 0.341888C26.4015 0.235903 26.5033 0.149731 26.6206 0.0903391C26.738 0.0309468 26.8677 0 26.9992 0C27.1307 0 27.2604 0.0309468 27.3778 0.0903391C27.4951 0.149731 27.5969 0.235903 27.6748 0.341888C28.7502 1.99135 54 40.9286 54 55.4593C53.9919 62.6177 51.1445 69.4806 46.0826 74.5422C41.0207 79.6038 34.1576 82.4508 26.9992 82.4585ZM26.9992 2.27351C22.9038 8.69399 1.61237 42.6844 1.61237 55.4593C1.66575 62.1574 4.36404 68.5631 9.11934 73.2807C13.8747 77.9982 20.3016 80.6454 27 80.6454C33.6984 80.6454 40.1254 77.9982 44.8807 73.2807C49.636 68.5631 52.3343 62.1574 52.3876 55.4593C52.3876 42.6844 31.0962 8.69399 26.9992 2.27351Z" fill="#323C6B"/>
</svg>

<svg width="54" height="83" fill="none" xmlns="http://www.w3.org/2000/svg"><path d="M53.318 55.378a26.193 26.193 0 1 1-52.386 0C.932 40.912 27.125.699 27.125.699s26.193 40.213 26.193 54.679z" fill="#3D4C66"/><path d="M7.858 60.742a.752.752 0 0 1-.587-.123.86.86 0 0 1-.345-.526A14.733 14.733 0 0 1 6.7 58.65a.873.873 0 0 1 .023-.32.82.82 0 0 1 .138-.285.73.73 0 0 1 .823-.261c.099.032.19.085.271.154a.885.885 0 0 1 .292.561c.044.425.11.847.195 1.265a.88.88 0 0 1 .01.324.837.837 0 0 1-.108.3.776.776 0 0 1-.208.229.733.733 0 0 1-.278.125zM15.34 73.197a.812.812 0 0 1-.69-.168 22.804 22.804 0 0 1-6.608-8.938.817.817 0 1 1 1.508-.62 21.209 21.209 0 0 0 6.137 8.295.816.816 0 0 1-.347 1.431z" fill="#fff"/><path d="M26.997.466s-1.566 2.407-3.926 6.24c6.033 9.592 24.27 39.588 24.27 51.663a26.12 26.12 0 0 1-10.765 21.135 26.181 26.181 0 0 0 16.608-24.36C53.19 40.679 26.997.467 26.997.467z" fill="#3D4C66" style="mix-blend-mode:soft-light" opacity=".5"/><path d="M9.706 22.605a.617.617 0 0 1-.593-.438.605.605 0 0 1 .05-.465c1.303-2.38 2.94-5.259 4.16-7.4l.66-1.17a.615.615 0 0 1 .373-.291.63.63 0 0 1 .657.21.609.609 0 0 1 .055.678l-.666 1.171a540.162 540.162 0 0 0-4.15 7.384.616.616 0 0 1-.546.321zM15.724 11.652a.543.543 0 0 1-.289-.084.602.602 0 0 1-.21-.228.664.664 0 0 1 0-.624l.691-1.276a.62.62 0 0 1 .144-.202.565.565 0 0 1 .206-.122.535.535 0 0 1 .458.057c.068.043.128.1.175.17a.65.65 0 0 1 .102.486.653.653 0 0 1-.09.235l-.688 1.276a.603.603 0 0 1-.211.228.543.543 0 0 1-.288.084zM27 82.459a27.03 27.03 0 0 1-27-27C0 40.92 25.25 1.991 26.324.342a.839.839 0 0 1 1.35 0C28.75 1.992 54 40.929 54 55.459a27.03 27.03 0 0 1-27 27zm0-80.185c-4.096 6.42-25.388 40.41-25.388 53.185a25.389 25.389 0 0 0 50.776 0c0-12.775-21.292-46.765-25.389-53.185z" fill="#323C6B"/></svg>
